icons/evolvere-blue-folders-flat-vivid-dark-fallback/devices/64/computer.svg

<?xml version="1.0" encoding="UTF-8" standalone="no"?>
<!-- Created with Inkscape (http://www.inkscape.org/) -->

<svg
   xmlns:dc="http://purl.org/dc/elements/1.1/"
   xmlns:cc="http://creativecommons.org/ns#"
   xmlns:rdf="http://www.w3.org/1999/02/22-rdf-syntax-ns#"
   xmlns:svg="http://www.w3.org/2000/svg"
   xmlns="http://www.w3.org/2000/svg"
   xmlns:xlink="http://www.w3.org/1999/xlink"
   xmlns:sodipodi="http://sodipodi.sourceforge.net/DTD/sodipodi-0.dtd"
   xmlns:inkscape="http://www.inkscape.org/namespaces/inkscape"
   id="svg13094"
   height="64"
   width="64"
   version="1.1"
   inkscape:version="0.48.4 r9939"
   sodipodi:docname="computer.svg"
   inkscape:export-filename="folder.png"
   inkscape:export-xdpi="90"
   inkscape:export-ydpi="90">
  <sodipodi:namedview
     pagecolor="#ffffff"
     bordercolor="#666666"
     borderopacity="1"
     objecttolerance="10"
     gridtolerance="10"
     guidetolerance="10"
     inkscape:pageopacity="0"
     inkscape:pageshadow="2"
     inkscape:window-width="1920"
     inkscape:window-height="1025"
     id="namedview46"
     showgrid="true"
     inkscape:snap-bbox="true"
     inkscape:bbox-paths="true"
     inkscape:bbox-nodes="true"
     inkscape:snap-bbox-edge-midpoints="true"
     inkscape:snap-bbox-midpoints="true"
     inkscape:snap-nodes="true"
     inkscape:object-paths="true"
     inkscape:snap-intersection-paths="true"
     inkscape:object-nodes="true"
     inkscape:snap-smooth-nodes="true"
     inkscape:snap-midpoints="true"
     inkscape:snap-object-midpoints="true"
     inkscape:snap-center="true"
     fit-margin-top="0"
     fit-margin-left="0"
     fit-margin-right="0"
     fit-margin-bottom="0"
     inkscape:zoom="7.375"
     inkscape:cx="45.688398"
     inkscape:cy="25.232415"
     inkscape:window-x="-2"
     inkscape:window-y="32"
     inkscape:window-maximized="1"
     inkscape:current-layer="svg13094"
     showguides="true"
     inkscape:guide-bbox="true"
     inkscape:snap-page="true"
     inkscape:snap-global="true">
    <inkscape:grid
       type="xygrid"
       id="grid3023"
       empspacing="5"
       visible="true"
       enabled="true"
       snapvisiblegridlinesonly="true"
       originx="-80px"
       originy="-75px" />
  </sodipodi:namedview>
  <defs
     id="defs11">
    <linearGradient
       inkscape:collect="always"
       id="linearGradient3282">
      <stop
         style="stop-color:#ffffff;stop-opacity:1;"
         offset="0"
         id="stop3284" />
      <stop
         style="stop-color:#ffffff;stop-opacity:0;"
         offset="1"
         id="stop3286" />
    </linearGradient>
    <radialGradient
       inkscape:collect="always"
       xlink:href="#linearGradient3282"
       id="radialGradient3288"
       cx="31.056034"
       cy="40.959286"
       fx="31.056034"
       fy="40.959286"
       r="7.046875"
       gradientTransform="matrix(5.7694007,-2.8372435e-5,0,5.0862717,-140.17471,-189.32917)"
       gradientUnits="userSpaceOnUse" />
  </defs>
  <metadata
     id="metadata13099">
    <rdf:RDF>
      <cc:Work
         rdf:about="">
        <dc:format>image/svg+xml</dc:format>
        <dc:type
           rdf:resource="http://purl.org/dc/dcmitype/StillImage" />
        <dc:title />
      </cc:Work>
    </rdf:RDF>
  </metadata>
  <path
     sodipodi:nodetypes="ccccccccc"
     inkscape:connector-curvature="0"
     style="color:#000000;fill:#3b577a;fill-opacity:1;fill-rule:nonzero;stroke:none;stroke-width:1;marker:none;visibility:visible;display:inline;overflow:visible;enable-background:accumulate;opacity:1;stroke-linecap:butt;stroke-linejoin:miter;stroke-miterlimit:4;stroke-dasharray:none;stroke-dashoffset:0;stroke-opacity:1"
     id="path3812-7"
     d="M 0,1 2,0 62,0 64,1 64,62 62,64 2,64 0,62 z" />
  <path
     d="M 0,1 2,0 62,0 64,1 64,4 0,4 z"
     id="path3029-5"
     style="color:#000000;fill:#668cbb;fill-opacity:1;fill-rule:nonzero;stroke:none;stroke-width:2.28571415;marker:none;visibility:visible;display:inline;overflow:visible;enable-background:accumulate;opacity:1;stroke-linecap:butt;stroke-linejoin:miter;stroke-miterlimit:4;stroke-dasharray:none;stroke-dashoffset:0;stroke-opacity:1"
     inkscape:connector-curvature="0"
     sodipodi:nodetypes="ccccccc" />
  <path
     d="M 64,6 62,4 64,3 z"
     id="path3028-4"
     style="fill:#4f7099;fill-opacity:1"
     inkscape:connector-curvature="0" />
  <path
     d="M 0,6 2,4 0,3 z"
     id="path3028-6-3"
     style="fill:#7a9cc5;fill-opacity:1;opacity:1;stroke-width:1;stroke-linecap:butt;stroke-linejoin:miter;stroke-miterlimit:4;stroke-dasharray:none;stroke-dashoffset:0;stroke-opacity:1"
     inkscape:connector-curvature="0" />
  <g
     transform="matrix(1.0000198,0,0,1.0000198,-1.1912854e-4,-3.9845345)"
     id="g3132-4">
    <path
       inkscape:connector-curvature="0"
       style="color:#000000;fill:#2c8fe4;fill-opacity:1;fill-rule:nonzero;stroke:none;stroke-width:0.48437499;marker:none;visibility:visible;display:inline;overflow:visible;enable-background:accumulate;opacity:1;stroke-linecap:butt;stroke-linejoin:miter;stroke-miterlimit:4;stroke-dasharray:none;stroke-dashoffset:0;stroke-opacity:1"
       d="m 2.90625,4.84375 0,18.90625 25.1875,0 0,-18.90625 -25.1875,0 z"
       transform="matrix(2.0644753,0,0,2.0644753,1.1899764e-4,3.9844558)"
       id="rect3776-47" />
  </g>
  <g
     id="g3043"
     inkscape:export-filename="folder.png"
     inkscape:export-xdpi="90"
     inkscape:export-ydpi="90"
     transform="translate(-0.62500009,0.082283)" />
  <path
     d="M 64,6 62,4 64,3 z"
     id="path3028"
     style="fill:#4f7099;fill-opacity:1;opacity:1;stroke:none;stroke-width:0.62299293000000000;stroke-linecap:butt;stroke-linejoin:miter;stroke-miterlimit:4;stroke-dasharray:none;stroke-dashoffset:0;stroke-opacity:1;marker:none"
     inkscape:connector-curvature="0" />
  <path
     style="color:#000000;fill:#162f4d;fill-opacity:0.35241502;fill-rule:nonzero;stroke:none;stroke-width:0.62299293;marker:none;visibility:visible;display:inline;overflow:visible;enable-background:accumulate;opacity:1;stroke-linecap:butt;stroke-linejoin:miter;stroke-miterlimit:4;stroke-dasharray:none;stroke-dashoffset:0;stroke-opacity:1"
     d="m 32,53 c 1.10457,0 2,0.89543 2,2 0,1.10457 -0.89543,2 -2,2 -1.10457,0 -2,-0.89543 -2,-2 0,-1.10457 0.89543,-2 2,-2 z"
     id="path3862"
     inkscape:connector-curvature="0"
     sodipodi:nodetypes="sssss" />
  <path
     style="color:#000000;fill:#b2f3ff;fill-opacity:1;fill-rule:nonzero;stroke:none;stroke-width:2.28571415;marker:none;visibility:visible;display:inline;overflow:visible;enable-background:accumulate"
     d="m 32,54 c 0.552285,0 1,0.44772 1,1 0,0.55228 -0.447715,1 -1,1 -0.552285,0 -1,-0.44772 -1,-1 0,-0.55228 0.447715,-1 1,-1 z"
     id="path3866"
     inkscape:connector-curvature="0"
     sodipodi:nodetypes="sssss" />
  <path
     sodipodi:nodetypes="sssss"
     inkscape:connector-curvature="0"
     id="path3850"
     d="m 26,54 c 0.552285,0 1,0.44772 1,1 0,0.55228 -0.447715,1 -1,1 -0.552284,0 -1,-0.44772 -1,-1 0,-0.55228 0.447716,-1 1,-1 z"
     style="color:#000000;fill:#162f4d;fill-opacity:0.35241502;fill-rule:nonzero;stroke:none;stroke-width:0.62299293;marker:none;visibility:visible;display:inline;overflow:visible;enable-background:accumulate;opacity:1;stroke-linecap:butt;stroke-linejoin:miter;stroke-miterlimit:4;stroke-dasharray:none;stroke-dashoffset:0;stroke-opacity:1" />
  <path
     style="color:#000000;fill:#162f4d;fill-opacity:0.35241502;fill-rule:nonzero;stroke:none;stroke-width:0.62299293;marker:none;visibility:visible;display:inline;overflow:visible;enable-background:accumulate;opacity:1;stroke-linecap:butt;stroke-linejoin:miter;stroke-miterlimit:4;stroke-dasharray:none;stroke-dashoffset:0;stroke-opacity:1"
     d="m 48,54 c 0.552285,0 1,0.44772 1,1 0,0.55228 -0.447715,1 -1,1 -0.552284,0 -1,-0.44772 -1,-1 0,-0.55228 0.447716,-1 1,-1 z"
     id="path3012"
     inkscape:connector-curvature="0"
     sodipodi:nodetypes="sssss" />
  <path
     sodipodi:nodetypes="sssss"
     inkscape:connector-curvature="0"
     id="path3852"
     d="m 21,54 c 0.552285,0 1,0.44772 1,1 0,0.55228 -0.447715,1 -1,1 -0.552284,0 -1,-0.44772 -1,-1 0,-0.55228 0.447716,-1 1,-1 z"
     style="color:#000000;fill:#162f4d;fill-opacity:0.35241502;fill-rule:nonzero;stroke:none;stroke-width:0.62299293;marker:none;visibility:visible;display:inline;overflow:visible;enable-background:accumulate;opacity:1;stroke-linecap:butt;stroke-linejoin:miter;stroke-miterlimit:4;stroke-dasharray:none;stroke-dashoffset:0;stroke-opacity:1" />
  <path
     style="color:#000000;fill:#162f4d;fill-opacity:0.35241502;fill-rule:nonzero;stroke:none;stroke-width:0.62299293;marker:none;visibility:visible;display:inline;overflow:visible;enable-background:accumulate;opacity:1;stroke-linecap:butt;stroke-linejoin:miter;stroke-miterlimit:4;stroke-dasharray:none;stroke-dashoffset:0;stroke-opacity:1"
     d="m 43,54 c 0.552285,0 1,0.44772 1,1 0,0.55228 -0.447715,1 -1,1 -0.552284,0 -1,-0.44772 -1,-1 0,-0.55228 0.447716,-1 1,-1 z"
     id="path3014"
     inkscape:connector-curvature="0"
     sodipodi:nodetypes="sssss" />
  <path
     style="color:#000000;fill:#162f4d;fill-opacity:0.35241502;fill-rule:nonzero;stroke:none;stroke-width:0.62299293;marker:none;visibility:visible;display:inline;overflow:visible;enable-background:accumulate;opacity:1;stroke-linecap:butt;stroke-linejoin:miter;stroke-miterlimit:4;stroke-dasharray:none;stroke-dashoffset:0;stroke-opacity:1"
     d="m 16,54 c 0.552285,0 1,0.44772 1,1 0,0.55228 -0.447715,1 -1,1 -0.552284,0 -1,-0.44772 -1,-1 0,-0.55228 0.447716,-1 1,-1 z"
     id="path3854"
     inkscape:connector-curvature="0"
     sodipodi:nodetypes="sssss" />
  <path
     sodipodi:nodetypes="sssss"
     inkscape:connector-curvature="0"
     id="path3016"
     d="m 38,54 c 0.552285,0 1,0.44772 1,1 0,0.55228 -0.447715,1 -1,1 -0.552284,0 -1,-0.44772 -1,-1 0,-0.55228 0.447716,-1 1,-1 z"
     style="color:#000000;fill:#162f4d;fill-opacity:0.35241502;fill-rule:nonzero;stroke:none;stroke-width:0.62299293;marker:none;visibility:visible;display:inline;overflow:visible;enable-background:accumulate;opacity:1;stroke-linecap:butt;stroke-linejoin:miter;stroke-miterlimit:4;stroke-dasharray:none;stroke-dashoffset:0;stroke-opacity:1" />
  <path
     d="m 0,60 64,0 0,2 -2,2 -60,0 -2,-2 z"
     id="path3809"
     style="color:#000000;fill:#162f4d;fill-opacity:0.35241502;fill-rule:nonzero;stroke:none;marker:none;visibility:visible;display:inline;overflow:visible;enable-background:accumulate;opacity:1;stroke-width:0.62299293;stroke-linecap:butt;stroke-linejoin:miter;stroke-miterlimit:4;stroke-dasharray:none;stroke-dashoffset:0;stroke-opacity:1"
     inkscape:connector-curvature="0"
     sodipodi:nodetypes="ccccccc" />
  <path
     style="color:#000000;fill:#6ce3ff;fill-opacity:0.177102;fill-rule:nonzero;stroke:none;stroke-width:1;marker:none;visibility:visible;display:inline;overflow:visible;enable-background:accumulate;opacity:1;stroke-linecap:butt;stroke-linejoin:miter;stroke-miterlimit:4;stroke-dasharray:none;stroke-dashoffset:0;stroke-opacity:1"
     d="M 6 10 L 6 49.03125 L 27.75 49.03125 L 42.6875 10 L 6 10 z "
     id="rect3776-4-9" />
  <path
     style="color:#000000;fill:url(#radialGradient3288);fill-opacity:1;fill-rule:nonzero;stroke:none;stroke-width:0.14078191000000001;marker:none;visibility:visible;display:inline;overflow:visible;enable-background:accumulate"
     d="M 35 22 L 35 27 L 36.1875 27 L 38.09375 22 L 35 22 z M 25 23 L 25 26 L 28 26 L 28 23 L 25 23 z M 30 23 L 30 27 L 34 27 L 34 23 L 30 23 z M 25 28 L 25 32 L 29 32 L 29 28 L 25 28 z M 30 28 L 30 32 L 34 32 L 34 28 L 30 28 z M 35 28 L 35 30.09375 L 35.8125 28 L 35 28 z M 24 33 L 24 38 L 29 38 L 29 33 L 24 33 z M 30 33 L 30 37 L 32.34375 37 L 33.875 33 L 30 33 z "
     id="rect3783" />
  <path
     inkscape:connector-curvature="0"
     id="path3279"
     d="m 35,22 0,5 5,0 0,-5 -5,0 z m -10,1 0,3 3,0 0,-3 -3,0 z m 5,0 0,4 4,0 0,-4 -4,0 z m -5,5 0,4 4,0 0,-4 -4,0 z m 5,0 0,4 4,0 0,-4 -4,0 z m 5,0 0,4 4,0 0,-4 -4,0 z m -11,5 0,5 5,0 0,-5 -5,0 z m 6,0 0,4 4,0 0,-4 -4,0 z m 6,1 0,3 3,0 0,-3 -3,0 z"
     style="color:#000000;fill:#e3ecf0;fill-opacity:1;fill-rule:nonzero;stroke:none;stroke-width:0.0737668;marker:none;visibility:visible;display:inline;overflow:visible;enable-background:accumulate;opacity:1;stroke-linecap:butt;stroke-linejoin:miter;stroke-miterlimit:4;stroke-dasharray:none;stroke-dashoffset:0;stroke-opacity:1" />
</svg>

<svg xmlns="http://www.w3.org/2000/svg" xmlns:xlink="http://www.w3.org/1999/xlink" viewBox="0 0 64 64"><defs><radialGradient id="1" cx="31.06" cy="40.959" r="7.05" gradientTransform="matrix(5.7694-.00003 0 5.08627-140.17-189.33)" gradientUnits="userSpaceOnUse"><stop stop-color="#fff"/><stop offset="1" stop-color="#fff" stop-opacity="0"/></radialGradient></defs><g color="#000"><path d="m0 1l2-1h60l2 1v61l-2 2h-60l-2-2z" fill="#3b577a"/><path d="m0 1l2-1h60l2 1v3h-64z" fill="#668cbb"/></g><path d="m64 6l-2-2 2-1z" fill="#4f7099" id="0"/><path d="m0 6l2-2-2-1z" fill="#7a9cc5"/><path d="m2.906 4.844v18.906h25.19v-18.906h-25.19" transform="scale(2.06452)" color="#000" fill="#2c8fe4"/><use xlink:href="#0"/><g color="#000"><path d="m32 53c1.105 0 2 .895 2 2 0 1.105-.895 2-2 2-1.105 0-2-.895-2-2 0-1.105.895-2 2-2" fill-opacity=".352" fill="#162f4d"/><path d="m32 54c.552 0 1 .448 1 1 0 .552-.448 1-1 1-.552 0-1-.448-1-1 0-.552.448-1 1-1" fill="#b2f3ff"/><g fill="#162f4d" fill-opacity=".352"><path d="m26 54c.552 0 1 .448 1 1 0 .552-.448 1-1 1-.552 0-1-.448-1-1 0-.552.448-1 1-1"/><path d="m48 54c.552 0 1 .448 1 1 0 .552-.448 1-1 1-.552 0-1-.448-1-1 0-.552.448-1 1-1"/><path d="m21 54c.552 0 1 .448 1 1 0 .552-.448 1-1 1-.552 0-1-.448-1-1 0-.552.448-1 1-1"/><path d="m43 54c.552 0 1 .448 1 1 0 .552-.448 1-1 1-.552 0-1-.448-1-1 0-.552.448-1 1-1"/><path d="m16 54c.552 0 1 .448 1 1 0 .552-.448 1-1 1-.552 0-1-.448-1-1 0-.552.448-1 1-1"/><path d="m38 54c.552 0 1 .448 1 1 0 .552-.448 1-1 1-.552 0-1-.448-1-1 0-.552.448-1 1-1"/><path d="m0 60h64v2l-2 2h-60l-2-2z"/></g><path d="m6 10v39.03h21.75l14.938-39.03h-36.688" fill-opacity=".177" fill="#6ce3ff"/><path d="m35 22v5h1.188l1.906-5h-3.094m-10 1v3h3v-3h-3m5 0v4h4v-4h-4m-5 5v4h4v-4h-4m5 0v4h4v-4h-4m5 0v2.094l.813-2.094h-.813m-11 5v5h5v-5h-5m6 0v4h2.344l1.531-4h-3.875" fill="url(#1)"/><path d="m35 22v5h5v-5h-5m-10 1v3h3v-3h-3m5 0v4h4v-4h-4m-5 5v4h4v-4h-4m5 0v4h4v-4h-4m5 0v4h4v-4h-4m-11 5v5h5v-5h-5m6 0v4h4v-4h-4m6 1v3h3v-3h-3" fill="#e3ecf0"/></g></svg>
